X:1
T:Auff, auff, mein Kind
T:André Vierendeels
T:Melody by Georg Vogler (1625) (Tenor voice)
T:Source : Catechismus---Würzburg---J.Volmari---1652. Editor : André Vierendeels (16/10/17).
T:Notes : Original clef : C3, other voices supplied editorially Original note values have been halved Editorial accidentals above the staff Text Middle German
T:Auff, auff, mein Kind
T:©
T:©
C:André Vierendeels
Z:©
%%score [ 1 2 3 ]
L:1/8
Q:1/4=120
M:2/2
K:F
V:1 treble nm="Soprano" snm="S"
V:2 treble nm="Alto" snm="A"
V:3 treble-8 nm="Tenor" snm="T"
V:1
 d4 c2 d2 | c4 c4 | c2 B2 A4 | c4 z4 | e4 c2 c2 | d4 e4 | e2 d2 B4 | c4 z4 | d4 e2 d2 | e2 d4 c2 | %10
w: Auff, auff, mein|Kind, die|beth- * lad|brinnt,|so balt der|Hahn die|Flü- * gel|schwingt,|und dir von|vier und fünf-|
w: Das frü- he|auff- stehn|macht Ar- me|reich,|den daw- ren|sei- nem|Jun- * kern|gleich,|lang schlaf- fen|bringt den Bet-|
 G4 c4 | z4 d4 | f2 d2 c2 B2- | B2 c2 G4 |[M:2/4] !fermata!c4 |[M:2/2] z4 e4 | c2 c2 B2 c2 | %17
w: fen treht,|der|kompt zu späth der|_ sich erst|dreht:|und|wel- zet in den|
w: tel- sack,|der|kompt zu späth der|_ sich erst|dreht:|hun-|g'ri- ge Zahn kein|
 d4 c4 | d4 z4 | e4 e2 f2 | c2 d2 c4 | c4 !fermata!c4 |] %22
w: Fe- dern|numb,|fau- lentzt nur|hie und dort|ein Trumb.|
w: müs- sig|Hand|macht satt auch|in Schla- raf-|fen- land.|
V:2
 B4 A2 F2 | E4 A4 | G2 B2 F4 | G4 z4 | G4 A2 G2 | B4 G4 | c2 A2 D4 | F4 z4 | F4 A2 G2 | G2 A4 G2 | %10
w: Auff, auff, mein|Kind, die|beth- * lad|brinnt,|so balt der|Hahn die|Flü- * gel|schwingt,|und dir von|vier und fünf-|
w: Und wann du|dich auff-|rich- * ten|wilt,|nimb in dein|Hand desz|Her- * zen|Schild,|das hei- lig|Creutz in Han-|
 D4 E4 | z4 F4 | A2 G2 G2 F2- | F2 E2 D4 |[M:2/4] !fermata!E4 |[M:2/2] z4 G4 | A2 G2 F2 E2 | %17
w: fen treht,|der|kompt zu späth der|_ sich erst|dreht:|und|wel- zet in den|
w: den trag,|der|kompt zu späth der|_ sich erst|dreht;|mit|Herz und Mund an-|
 F4 A4 | B4 z4 | G4 c2 A2 | A2 F2 F4 | E4 !fermata!A4 |] %22
w: Fe- dern|numb,|fau- lentzt nur|hie und dort|ein Trumb.|
w: däch- tig|sprich:|das wal- te|Gott, und se-|gne dich.|
V:3
 G4 A2 B2 | c4 f4 | e2 f2 d4 | c4 z4 | c4 f2 e2 | d4 c4 | A2 F2 G4 | F4 z4 | B4 A2 B2 | c2 d4 c2- | %10
w: Auff, auff, mein|Kind, die|beth- * lad|brinnt,|so balt der|Hahn die|Flü- * gel|schwingt,|und dir von|vier und fünf-|
w: Ge- denck, wie|du werdst|auf- * fer-|stehn,|ausz dei- nem|Grab her-|füh- * rer|gehn,|zur rech- ten|o- der lin-|
"^-natural" c2 B2 c4 | z4 B4 | A2 B2 c2 d2- |"^-natural" d2 c4 B2 |[M:2/4] !fermata!c4 | %15
w: * fen treht,|der|kompt zu späth, der|_ sich erst|dreht:|
w: * cken Hand,|hei-|lig o- der der|_ Höl- len-|brandt,|
[M:2/2] z4 c4 | f2 e2 d2 c2 | B4 A4 | G4 z4 | c4 A2 d2 | c2 B2 A4 | G4 !fermata!F4 |] %22
w: und|wel- zet in den|Fe- dern|numb,|fau- lentzt nur|hie und dort|ein Trumb.|
w: nach|dei- nem Thun, nach|dei- nem|Werck.|Hör was ich|sag: wohl al-|les merck.|

